!!!OTL: Miller, Kniecht a Mod (280), S. 592
!!!id: T0470
**kern
*clefG2
*k[b-]
*F:
{8cc
8cc
8cc
=1
8cc
8cc
8cc
8cc
=2
8dd
8cc}
=3
{8b-
8dd
=4
8dd
8cc
8cc
8cc
=5
8cc}
=6
{8a
8a
16a
16a
=7
8b-
8a}
=8
{8g
8g
=9
8a
8g
8f
8f
=10
8b-
8a
8g
8g
=11
4cc}
=12
{8f
8g
=13
8a
8a
8g
8g
=14
8f}
==
*-
!!!minrhy: 16
!!!meters: 2/4 ]  ZZ[5
!!!cut: Miller, Kniecht a Mod (280), S. 592
!!!reg: Luxemburg
!!!trd: Singendes Volk, Esch-Alzette, 1937 posth.
!!!rhy1: X_X_X_  X_X_X_X_  X_X_   (x2)
!!!rhy2: X_X_  X_X_X_X_  X_
!!!key: T0470  16  F 2/4 ]  ZZ[5
!!!mod: SECHSTONSKALA DUR ?]  AMBITUS[6
!!!kad: 55351
!!!akz: 56_65_4_345_31_
!!!fot: 'a__b__c__d__bs"
!!!for: 'a__aw_aw_aw_aw_
!!!fok: '-__/__-__~a_^__
!! PHRAS[AUFTAKTIG]
!!!fkt: ???
!!!bem1: Heffingen, hhh Nikolaus Ewen, 29.8.1934;
!!!bem2: Godbringen, fff Kintzele, um 1900
!! THILL; Mathias
!! PR[48] 2K[1] 2G[1] 3K[3] 3G[3] 4A[0] 4Ü[0] 5A[3] 6K[0] 6G[4]
!! 7K[0] 7G[1] 8A[0] MEHR[0] SI[18] ABS[67] SR[3] SP[15]
!! ST[18] 2k[4] 2g[18] 3k[3] 3g[3] 4d[3] 4ü[0] 5d[3] 6k[0] 6g[0]
!! 7k[0] 7g[0] 8d[0] mehr[0] si[34] dm[-16] sr[22] sp[12]
!! 1F[23] 2F[3] 3F[49] 4F[0] LF[0] 2P[23] 3P[3] 4P[0] TRI[0] DF[5] AB[70]
!! TF[0] U3K[0] U3[0] U4[0] U4Ü[0] U5[3] U6K[0] U6[0] U7K[0] U7[0]
!! N1[25] N2K[0] N2[3] N3K[0] N3[21] N4[7] N4Ü[0] N5[31] N6K[0] N6[7]
!!!n7k: 0] N7[3] O1[0] O2K[0] O2[0] O3K[0] O3[0] HÖ[0
